X:1
T:Title
L:1/8
M:6/8
K:C
V:1 treble nm="Grand Piano"
V:1
 z3 z2[Q:1/4=140] A, | E3 E2 G | F3 F2 E | D3 D2 F | E3 E2 D | C3 C2 E | D3 C2 B, | F3 F2 G | %8
 E3- E2 A, | E3 E2 G | F3 F2 E | D3 D2 F | E3 E2 D | C3 C2 E | D3 C2 B, | F3 F2 G | E3- E2 E | %17
 A3 A2 A | A3 G2 F | F3 D2 E | F3- F2 F | G3 G2 G | G3 F2 E | E3 C2 D | E3- E2 E | F3 F2 F | %26
 F3 E2 D | D3[K:bass] B,2 C | A,3- A,2 E | A3 c2 c | B3 A2 A | A3 ^G2 A | B3- B2 B | B3 d2 d | %34
 c3 B2 B | c3 d2 e | e3- e2 B | c3 B2 A | B3 A2 G | A3 B2 G | F3- F2 A | _B3 A2 G | G3 F2 E | %43
 E3 C2 [B,D] | [A,E]6 |] %45

